X: 933
T: Bridget McRory.
B:O'Neill's 933
N:"collected by F. O'Neill."
Z:Transcribed by Tom Keays (htkeays@mailbox.syr.edu)
Z:abc 1.6
M:6/8
R:Jig
L:1/8
K:G
g | dBG GFG | BAB GFG | dBG ABd | e2 A A2 g |
dBG GFG | BAB GAB | gfe dBA | B2 G G2 :|
|| g | gAg gfe | aAa agf | gag gfe | a2 e e2 g |
gAg gfe | aAa agf | gfe dBA | B2 G G2 :|


